X:1
T:Oboe Sonate F-Dur, HWV 363a
T:Oboe Sonate F-Dur, HWV 363a
T:für Oboe, und Basso continuo Transcribed for Ob. Bsn. Hch.  from IMSLP#400414 PDF File
T: George Frideric Handel (1685 — 1759)
T:Public Domain - Non-PD US
T:Public Domain - Non-PD US
T:Public Domain - Non-PD US
T:Public Domain - Non-PD US
T:Public Domain - Non-PD US
T:Public Domain - Non-PD US
T:Public Domain - Non-PD US
C:George Frideric Handel (1685 — 1759)
Z:Public Domain - Non-PD US
%%score [ 1 2 ] { ( 3 4 6 ) | 5 }
L:1/8
Q:1/4=60
M:4/4
K:F
V:1 treble nm="Oboe" snm="Ob."
V:2 bass nm="Fagotto" snm="Bsn."
V:3 treble nm="Harpsichord" snm="Hch."
V:4 treble 
V:6 treble 
V:5 bass 
V:1
"^1. Adagio" f4- fg/a/ cTB/>A/ | A/G/F z c AG z c | AG z f dc z f | dcFB- BA d(e/f/4g/4) | %4
 cB/A/ AG/F/ F3 f | ec z (f/4g/4a/) ed/c/ g2- | g/c/d/e/ ff fe- e/d/e/f/ | G/f/e/d/ ed/c/ c4- | %8
 c4 z aef | ^cd AB/A/ A3 f | b3 c a3 B | g3 A fegf | badg- g/a/f/e/ fe/d/ | df/>d/ B2 z e/>c/ A2- | %14
 A3 d G3 A | A8 |][M:4/4]"^2. Allegro"[Q:1/4=105] z c/c/ cc AFFd | cFFf ecca | %18
 gc z/ f/e/f/ d/f/e/f/ c/f/e/f/ | B/f/e/f/ A/f/e/f/ Gf gf/e/ | f2 z2 z c/B/ A/B/c/d/ | %21
 e/f/e/d/ c/d/e/f/ g/a/g/f/ e/f/g/a/ | f/e/f/g/ e/c/d/e/ f z e z | a z gc fe fe/d/ | %24
 e/c/d/e/ f/g/a/f/ de/f/ g/e/f/g/ | cd/e/ f/d/e/f/ B/c/A/B/ G/A/B/c/ | AFdd dc z c | fB z B gefB | %28
 A2 G>F F2 z d | cFFB AF z d | cFFB AF z d | cFFf ec z a | gccf ec z/ g/f/g/ | %33
 a/g/f/e/ f/e/d/c/ =BGBd | g/f/e/d/ e/d/c/=B/ AFAc | f/e/d/c/ d/c/=B/A/ G2 z2 | z G/G/ GG ECCA | %37
 GCCc =BGGe | dG z/ c/=B/c/ A/c/B/c/ G/c/B/c/ | F/c/=B/c/ E/c/B/c/ Dc dc/B/ | c2 z3 c/c/ cc | %41
 AF z2 z f/f/ ff | dB z g ec z a | fb/a/ g/f/e/d/ ^cA a2- | a8- | a8- | ad g2- gafe | %47
 f2 Te>d d/f/e/f/ d/f/e/f/ | G2 z =B c/e/d/e/ c/e/d/e/ | F2 z A df/e/ d/c/=B/A/ | ^Ge/e/ ee cAAf | %51
 eAAa f/g/f/e/ d/c/=B/A/ | ed/c/ =B>A Ac/B/ c2- | ca/g/ ^f/e/d/c/ _BG/A/ B2 | %54
 Bg/=f/ e/d/c/B/ A/G/F/G/ A/B/c/d/ | B/A/G/A/ B/c/d/e/ c/B/A/B/ c/d/e/f/ | %56
 d/c/B/c/ d/e/f/g/ ec'/c'/ c'c' | f2 z2 z g/a/ b/g/a/b/ | e2 z2 z f/g/ a/g/f/e/ | %59
 dd/e/ f/e/d/c/ B/c/d/c/ B/A/G/F/ | Ec/c/ cc AFFf | c2 z f ecca | gc z/ f/e/f/ d/f/e/f/ c/f/e/f/ | %63
 B/f/e/f/ A/f/e/f/ G/f/e/f/ e/d/e- | e/f/g/a/ d/c/d- d/e/f/g/ c/d/e/f/ | B/c/d/e/ f/g/a/b/ ec f2- | %66
 fg/a/ e>f ff/e/ d/c/B/A/ | d/c/B/A/ B/A/G/F/ ecfB | A>G G>F F2 z2 |][M:3/4]"^3. Adagio" z6 | z6 | %71
 z4 z2 | z6 | A6- | A4 d2 | ^c4 a2 | g2 f3 e | f2 d2 z2 | z2 A2 B2 | c6- | c4 f2 | e4 f2 | %82
 G2 A2 B2 | A6 | A2 c2 =B2 | c4 z2 | ^c4 z2 | d4 z2 | e4 z2 | f4 e2 | A4 =B2 | T^G3 ^F E2 | %92
 z2 a2 g2 | f4 e2 | z2 d>^c d2- | d3 e =c2- | c=B TB3 A | A6- | A6 | z6 | z2 e2 (ef/g/) | %101
 f2 A2 B2 | c4 d2 | B3 A G2 | z2 e2 A2 | f3 e d2- | de T^c3 d | G6- | G2 A2 E2 | F4 A2 | d2 TG3 A | %111
 A6 |][M:4/4]"^4. Bourrée anglaise"[Q:1/4=140] c2 | c2 A2 BAGF | d2 f4 ed | c2 BA GABG | A2 F4 G2 | %117
 A=BcA BcdB | cdec defd | ef g2 G2 =B2 | c6 :: g2 | g2 e2 (fedc) | f2 a4 d2 | ^c2 d2 e2 fg | %125
 f2 d4 c2 | c2 BA B2 B2- | B2 AG A2 c2 | defd efge | fgaf gabg | a2 gf efge | fgaf g2 B2 | %132
 A2 GF EFGE | FGAF GABG | AB c2 TA2 GF | F6 :| z/4 |[M:3/4]"^5. Menuet" f2 Tc3 B/c/ | g2 Tc3 B/c/ | %139
 a2 ga b2 | a2 ga f2 | ef (Tf3 e/f/) | g2 fedc | d2 G2 =B2 | c6 :: c2{/c} f4 | d2 cBAG | %147
 d2{/d} g4 | e2 dcBA | e2{/e} a4 | f2 ed^cd | e2 A2 ^c2 | d6 | c2 A>Bc>d | c2 a2 ^f2 | c2 d>cB>A | %156
 B2 b2 a2 | g2 fedc | f2 edcB | A2 BAGA | F6 :| %161
V:2
 F,G,A,B, CB,CC, | F,F,E,C, z CA,E, | F,C,A,,F,, z F,D,A,, | B,,C,D,E, F,F,,B,,B, | %4
 A,F,CC, F,G,A,B, | CE,F,F,, C,D,E,C, | A,2 z =B, CC, F,2 | E,F,G,G,, C,F,E,F, | %8
 C,CG,A, E,F,^C,D, | A,,B,,F,,G,, A,,F,E,D, | G,,G,CE, F,A,B,D, | E,G,^C,^C DCB,A, | %12
 G,F, B,2 A,D,A,A,, | D,2 z G, C,2 z F, | B,,8 | A,,8 |][M:4/4] z8 | z8 | z8 | z8 | %20
 z F,/F,/ F,F, E,C,C,A, | G,C,C,C =B,G,G,E | DG, z/ C/=B,/C/ A,/C/B,/C/ G,/C/B,/C/ | %23
 F,/C/=B,/C/ E,/C/B,/C/ D,C DC/B,/ | CC, z C CC z C | B,A, z A, G,F,E,C, | %26
 F,G,/A,/ B,/G,/A,/B,/ E,F,/G,/ A,/F,/G,/A,/ | D,E,/F,/ G,/E,/F,/G,/ C,CDB, | %28
 CB,CC, F,,/F,/E,/F,/ B,,/F,/E,/F,/ | A,,/F,/E,/F,/ G,,/F,/E,/F,/ F,,/F,/E,/F,/ B,,/F,/E,/F,/ | %30
 A,,/F,/E,/F,/ G,,/F,/E,/F,/ F,,/F,/E,/F,/ B,,/F,/E,/F,/ | %31
 A,,/F,/E,/F,/ D,/=B,/A,/B,/ C,/C/B,/C/ F,/C/B,/C/ | E,/C/=B,/C/ D,/C/B,/C/ C,/C/B,/C/ E,C | %33
 F,G,A,F, G,D/C/ =B,/A,/G,/F,/ | E,G,CE, F,C/=B,/ A,/G,/F,/E,/ | D,E,F,D, =B,,G,/G,/ G,G, | %36
 E,C, z2 z C,/=B,,/ A,,/B,,/C,/D,/ | E,/F,/E,/D,/ C,/D,/E,/F,/ G,/A,/G,/F,/ E,/F,/G,/A,/ | %38
 =B,/G,/A,/B,/ CE, F, z E, z | A, z G, z F,E,F,G, | C, C/C/ CC A,F, z2 | z F,/F,/ F,F, D,B,, z2 | %42
 z B,/A,/ G,/A,/B,/G,/ CC/B,/ A,/B,/C/A,/ | B,G, z2 z A,/G,/ F,/E,/D,/E,/ | %44
 ^C,/A,,/=B,,/C,/ D,/E,/F,/G,/ A,/D/^C/D/ G,/D/C/D/ | %45
 F,/D/^C/D/ E,/D/C/D/ D,/A,/G,/A,/ C,/A,/G,/A,/ | B,,2 z B, ^C,A,,D,G, | A,G,A,A,, D,2 z D | %48
 B,/D/C/D/ G,/D/C/D/ E,2 z C | A,/C/=B,/C/ F,/A,/G,/A,/ B,,2 z D, | E,2 z2 z A,/A,/ A,A, | %51
 ^G,C/C/ CC D,2 z D | ^G,A,E,E,, A,,2 z A,/=G,/ | ^F,D,E,=F, G,2 z G,/F,/ | E,C,D,E, F,F,, z F, | %55
 G,G,, z G, A,A,, z A, | B,B,, z G, C2 z2 | z D/D/ DD G,2 z2 | z A,/B,/ C/A,/B,/C/ F,2 z2 | %59
 z B,/C/ D/C/B,/A,/ G,/A,/B,/A,/ G,/F,/E,/D,/ | C,/F,/E,/D,/ C,/B,,/A,,/G,,/ F,,F,/F,/ F,F, | %61
 E,C,C,A, G,C, z/ C/B,/C/ | C,/B,/A,/B,/ C,/A,/G,/A,/ B,,B,A,F, | DD,C,C B,G,CB, | %64
 A,F,B,A, G,E,A,F, | D,B,, z A, CA,DB, | CB,CC, F,2 z F, | B,,C,D,B,, C,A,,D,B,, | %68
 C,C,C,C,, F,,2 z2 |][M:3/4] D,2 F,2 E,2 | D,2 C,2 B,,2 | A,,2 G,,2 F,,2 | G,,2 A,,2 A,,2 | %73
 D,2 F,2 E,2 | D,2 C,2 B,,2 | A,,2 G,,2 F,,2 | G,,2 A,,2 A,,2 | D,2 F,2 E,2 | D,2 C,2 B,,2 | %79
 F,2 A,2 G,2 | F,2 E,2 D,2 | C,2 B,,2 A,,2 | B,,2 C,2 C,2 | F,,2 A,2 G,2 | F,2 E,2 D,2 | %85
 C,2 C2 =B,2 | A,2 A,2 G,2 | F,2 E,2 D,2 | ^C,2 =B,,2 A,,2 | D,2 =B,2 C2 | F,2 E,2 D,2 | %91
 E,2 E,2 D,2 | C,2 C2 =B,2 | A,2 A,,2 G,,2 | F,,2 F,2 D,2 | ^G,2 E,2 A,2 | D,2 E,2 E,2 | %97
 A,,2 F,2 E,2 | D,2 C,2 B,,2 | A,2 G,2 F,2 | G,2 A,2 A,,2 | D,2 C,2 B,,2 | A,,2 ^F,2 D,2 | %103
 G,2 E,2 D,2 | ^C,4 ^C2 | D2 A,2 B,2 | G,2 A,2 A,,2 | z2 B,2 G,2 | ^C,4 C,2 | D,2 D2 C2 | %110
 B,2 B,,4 | A,,6 |][M:4/4] F,2 | E,2 F,2 C,2 D,2 | B,,2 B,2 A,2 B,2 | E,2 F,2 B,,2 C,2 | F,,6 C,2 | %117
 F,2 E,2 D,2 G,2 | E,2 C2 =B,2 G,2 | C2 E,2 G,2 G,,2 | C,2 C=B, C2 :: C,2 | C2 G,2 C2 B,2 | %123
 A,2 F,G, A,2 B,2 | A,2 D,2 G,2 A,2 | D,6 A,2 | D,2 ^F,2 G,2 G,,2 | C,2 E,2 F,2 A,,2 | %128
 B,,2 G,,2 C,2 B,,2 | A,,2 F,2 E,2 C,2 | F,2 A,2 C2 C,2 | D,2 F,2 E,2 G,2 | F,2 A,2 C2 B,2 | %133
 A,2 F,2 E,2 C,2 | F,2 A,,2 C,2 C,,2 | F,,6 :| z/4 |[M:3/4] F,2 A,2 F,2 | C2 E,2 C,2 | %139
 F,2 E,2 C,2 | F,2 E,2 D,2 | C,2 A,,2 F,,2 | C,2 D,2 E,2 | F,2 G,2 G,,2 | C,2 CB,A,G, :: %145
 F,2 A,2 F,2 | B,6 | G,2 B,2 G,2 | z6 | A,2 ^C2 A,2 | D2 A,2 B,2 | G,2 A,2 A,,2 | D,2 F,2 D,2 | %153
 A,4 F,2 | ^F,4 D,2 | A,2 ^F,2 D,2 | G,4 A,2 | B,6 | A,2 A,,2 B,,2 | C,2 B,,2 C,2 | F,,6 :| %161
V:3
 ABcd [FGc]d G2 | AA Gc z G FG | [A,F][G,E] F/G/A z A Bc | d[EG]/A/ [FB][CGB] BA [DFB][DG] | %4
 F/G/[FA] [FA][EG] ABcd | c2 [CFA][A,CF] c3 c | [EGc]2 z [FGd] G2 ED | [CG][Ad] [Ec][D=B] c3 f/e/ | %8
 egef c A2 F | [^CE][F,D] AG/F/ [CE][Ad][G^c][Fd] | B3 c A3 B | G2 A2- A2 GF | %12
 BAAG [^CEG][A,DF][DF][CE] | [A,DF]2 z [DFB] [DFA]2 z [CEA] | [DFA]4 [DG]4 | [^CEA]8 |][M:4/4] z8 | %17
 z8 | z8 | z8 | z [FAc]/[FAc]/ [FAc]2 c3 f | e3 [Gc] d=BBc | [F=B]2 [Ec] z [Fc] z [Ec] z | %23
 [Ac] z [Gc] z c2 =B2 | [Ec] z2 [EA] [DFA]G z [DG] | GF z [Fc] [EB][CA][B,G][EB] | %26
 AB/c/ [Ad]2 [Gd]2 [Gc]2 | [Fc]2 [FB]2 [EB]2 [FA][GB] | [FA]2 [EG]2 [A,CF]2 [Fd]2 | %29
 c2 B2 [CFA]2 [Fd]2 | c2 B2 [CFA]2 [Fd]2 | [Fc]2 [F=B]2 [Ec]2 [Ac]2 | [Gc-]2 c^B [Ec]2 c2 | %33
 [CA][E_B] cA [D=B][FB][Gd][GB] | [Gc]2 ec [CA][FA][Fc][FA] | FGAF [DG][D=B]/[DB]/ [DB][DB] | %36
 [Gc][EG] z2 z E/D/ C/D/E/F/ | G/A/G/F/ E/F/G/A/ =B/c/B/A/ G/A/B/c/ | %38
 d/=B/c/d/ [Ge][Gc] [FA] z [CG] z | [Fc] z [Ec] z [Ad][Gc][Ad][D=B] | %40
 [Ec][Ge]/[Ge]/ [Ge][Ge] [Fc][CA] z2 | z [CFA]/[CFA]/ [CFA][CFA] [FB][DF] z2 | %42
 z d/c/ B/c/d/B/ ee/d/ c/d/e/c/ | [Fd][DB] z2 z ^c/=B/ A/G/F/G/ | E/^C/D/E/ F/G/A/=B/ ^cA_Bb | %45
 aAGg fFE[Ae] | [FAd]2 z [FAd] [EA][E^c][Fd][Be] | [FAd]2 [EA^c]2 [FAd]2 z [Fd] | %48
 Gd=BG [Gc]2 z [Ec] | FcAF [FAd]2 z [F=B] | [=B,E^G]2 z2 z [EAc]/[EAc]/ [EAc][EAc] | %51
 [E=B][EA]/[EA]/ [EA][EA] [CFA]2 z [FB] | [DE=B][CEA] A^G [CEA]2 z [CEA] | A^FGA [D_B]2 z [_B,DG] | %54
 GE^FG [CFA]2 z [DA] | [DB]2 z [EGB] c2 z [FAc] | d2 z [Bd] [Gce]2 z2 | %57
 z [FA]/[FA]/ [FA][FA] [DFB]2 z2 | z2 [EG][EG] [CFA]2 z2 | z2 [Fd]2 [DB]2 [B,G]2 | %60
 [CE]2 [Ec]2 [FA][FA]/[FA]/ [FA][FA] | c3 c [EB]2 [FA]2 | [EG]2 [FAc]2 [Fd]2 [Fc]2 | %63
 [FB]2 [FA]2 G2 [EG]2 | c2 [FBd]2 BG c2 | [FB][Fd] z [Fd] c2 B2 | [FA]2 [EG]2 [CFA]2 z [CA] | %67
 [Fd][Ec] B2 Gc B2 | [CFA]2 [CEG]2 [A,CF]2 z2 |][M:3/4] [DFA]2 [Ad]2 [G^c]2 | [Fd]2 [EA]2 [DG]2 | %71
 [^CA]4 [Ad]2 | d3 e [A^c]2 | [FAd]2 [Ad]2 [G^c]2 | [Fd]2 [EA]2 [DG]2 | [^CA]4 [Ad]2 | %76
 [EBd]2 [FA]2 [EA^c]2 | [FAd]2 [Ad]2 [G^c]2 | [Fd]2 [EA]2 [DG]2 | [CFA]2 [Fc]2 [EB]2 | %80
 [CFA]2 [Gc]2 [FB]2 | [EGc]4 [Fc]2 | [DFG]2 [A,F]2 [G,E]2 | [A,CF]2 [CF]2 [B,E]2 | %84
 [A,F]2 [CG]2 [=B,F]2 | [CE]2 [EG]4 | [^CEA]4 [CEA]2 | [DA]2 [^CG]2 [A,DF]2 | A6- | %89
 [DFA]2 [FGd]2 [EGc]2 | [CA]4 [=B,F]2 | [^G,E]6 | [EA]2 [FA]2 [DG]2 | [CF]4 [^B,E]2 | %94
 [DG]4 [F=B]2 | =B4 [Ac]2 | c=B/A/ [=B,^G]4 | [CEA]2 [Ad]2 [G^c]2 | [Fd]2 [EA]2 [DG]2 | %99
 [^CA]4 [Ad]2 | [Bde]2 [A^c]4 | [FAd]2 [EA]2 [DG]2 | AB [Ac]4 | [DGB]2 [CG]2 D2 | [A,EG]4 [EA-]2 | %105
 A2 ^c2 d2 | [Bd]2 [A^c]4 | z2 [DG]A [DB]2 | [A,EG]4 [A,EG]2 | [A,DF]2 [FA]2 [EA]2 | [DFA]2 [DG]4 | %111
 [^CEA]6 |][M:4/4] [CA]2 | [CG]2 [A,F]2 [EG]2 [A,F]2 | [DF]2 d2 c2 [DB]2 | %115
 [Gc]2 [CF-A]2 [DFG]2 [EG]2 | F2 AG F2 [G,CE]2 | [A,F]2 [Gc]2 ^B2 D2 | [Gc]2 G4 =B2 | c4 =B4 | %120
 [EGc]6 :: [Ge]2 | [EGc]4 [EG]4 | [Fc]2 AB [Fc]2 [Fd]2 | [G^c]2 [Fd]2 [Bd]2 [Ac]2 | %125
 [FAd]2 AG F2 [EA=c]2 | [^FAc]2 [DA]2 [B,G]2 [DGB]2 | [EGB]2 [CG]2 [A,=F]2 [Fc]2 | %128
 d2 B2 [EG]2 [CEG]2 | F2 A2 [CG]2 [EGc-]2 | c4 [EG]2 [EGc]2 | f4 c2 B2 | [CA]2 [CF]2 E2 [CE]2 | %133
 [CF]2 [CA]2 [CG]2 [EB]2 | [CA]2 [CF]2- [A,CF]2 [G,CE]2 | [A,CF]6 :| z/4 |[M:3/4] AB c2 A2 | G6 | %139
 A2 G4 | [CA]B [Gc]2 [F=B]2 | c6 | c4 c2- | c4 =B2 | [EGc]6 :: A2 cB A2 | [DFB]6 | B2 dc B2 | %148
 [EGc]6 | ^c2 ed c2 | [Fd]2 [A^c]2 [Fd-]2 | d4 ^c2 | d6 | [EAc]4 [EAc]2 | [DAc]4 [^Fd]2 | %155
 [^Fc]2 [CDA]2 [A,CF]2 | [B,DG]4 [C=F]2 | G4 d2 | [Fc]2 [Fc]2 [DB]2 | [CA]2 G4 | [A,CF]6 :| %161
V:4
 C2 F2 x2 E2 | [CF]2 CE x E C2 | x2 C2 x F F2 | FE x2 [CF]2 x2 | C[CF] x2 [CF]2 F2 | EG x2 EF GE | %6
 x4 FE A,2 | x4 [EG]A/G/GA | Ge_Bc GCEA, | x2 D[B,D] x4 | F2 EG FCDF | ^CEEE FEDC | ED D2 x4 | x8 | %14
 x5 FED | x8 |][M:4/4] x8 | x8 | x8 | x8 | x4 GEEc | BEEE G3 G | x8 | x4 F4 | x8 | [CE]2 x6 | %26
 [CF]2 x6 | z8 | x8 | F2- FE x4 | F2- FE x4 | x8 | x2 F2 x2 GE | x2 F2 x4 | x2 G2 x4 | D3 D x4 | %36
 x8 | C2 C2 G2 C2 | G2 x6 | x8 | x8 | x8 | x8 | x8 | x8 | x8 | x8 | x8 | x8 | x8 | x8 | x8 | %52
 x2 [=B,E]2 x4 | D3 D x4 | C3 C x4 | x4 [EG]F x2 | [FA]G x6 | x8 | x8 | x8 | x8 | GEEF x4 | x8 | %63
 x4 DB, x2 | FA x2 E2 FA | x4 E(FF)D | x8 | x2 FD EEFD | x8 |][M:3/4] x6 | x6 | x6 | %72
 [EB]2 [FA]2 E2 | x6 | x6 | x6 | x6 | x6 | x6 | x6 | x6 | x6 | x6 | x6 | x6 | x6 | x6 | x6 | %88
 E2 D2 ^C2 | x6 | x6 | x6 | x6 | x6 | x6 | E2 ^G2 E2 | [FA]2 E2 D2 | x6 | x6 | x6 | x2 E2 G2 | x6 | %102
 [CE]2 D2 ^F2 | x2 B,4 | x6 | F6 | E2 E2 G2 | x6 | x6 | x6 | x6 | x6 |][M:4/4] x2 | x8 | x2 F2 x4 | %115
 x8 | [A,C]3 x5 | x4 F2 x2 | x2 E2 D2 F2 | E2 G2 D2 F2 | x6 :: x2 | x8 | x2 C2 x4 | x4 E4 | x8 | %126
 x8 | x8 | F4 x4 | C4 x4 | A2 F2 x4 | B2 A2 G2 E2 | x8 | x8 | x8 | x6 :| x/4 |[M:3/4] [CF]6 | %138
 ED C2 E2 | C4 E2 | x6 | E2 F2 A2 | E2 F2 G2 | A2 G2 F2 | x6 :: [CF]6 | x6 | [DG]6 | x6 | [EA]6 | %150
 x6 | B2 A2 G2 | F2 DE F2 | x6 | x6 | x6 | x6 | [DF]6 | x6 | x2 [DF]2 [CE]2 | x6 :| %161
V:5
 F,G,A,B, CB,CC, | F,F,E,C, z CA,E, | F,C,A,,F,, z F,D,A,, | B,,C,D,E, F,F,,B,,B, | %4
 A,F,CC, F,G,A,B, | CE,F,F,, C,D,E,C, | A,2 z =B, CC, F,2 | E,F,G,G,, C,F,E,F, | %8
 C,CG,A, E,F,^C,D, | A,,B,,F,,G,, A,,F,E,D, | G,,G,CE, F,A,B,D, | E,G,^C,^C DCB,A, | %12
 G,F, B,2 A,D,A,A,, | D,2 z G, C,2 z F, | B,,8 | A,,8 |][M:4/4] z8 | z8 | z8 | z8 | %20
 z F,/F,/ F,F, E,C,C,A, | G,C,C,C =B,G,G,E | DG, z/ C/=B,/C/ A,/C/B,/C/ G,/C/B,/C/ | %23
 F,/C/=B,/C/ E,/C/B,/C/ D,C DC/B,/ | CC, z C CC z C | B,A, z A, G,F,E,C, | %26
 F,G,/A,/ B,/G,/A,/B,/ E,F,/G,/ A,/F,/G,/A,/ | D,E,/F,/ G,/E,/F,/G,/ C,CDB, | %28
 CB,CC, F,,/F,/E,/F,/ B,,/F,/E,/F,/ | A,,/F,/E,/F,/ G,,/F,/E,/F,/ F,,/F,/E,/F,/ B,,/F,/E,/F,/ | %30
 A,,/F,/E,/F,/ G,,/F,/E,/F,/ F,,/F,/E,/F,/ B,,/F,/E,/F,/ | %31
 A,,/F,/E,/F,/ D,/=B,/A,/B,/ C,/C/B,/C/ F,/C/B,/C/ | E,/C/=B,/C/ D,/C/B,/C/ C,/C/B,/C/ E,C | %33
 F,G,A,F, G,D/C/ =B,/A,/G,/F,/ | E,G,CE, F,C/=B,/ A,/G,/F,/E,/ | D,E,F,D, =B,,G,/G,/ G,G, | %36
 E,C, z2 z C,/=B,,/ A,,/B,,/C,/D,/ | E,/F,/E,/D,/ C,/D,/E,/F,/ G,/A,/G,/F,/ E,/F,/G,/A,/ | %38
 =B,/G,/A,/B,/ CE, F, z E, z | A, z G, z F,E,F,G, | C, C/C/ CC A,F, z2 | z F,/F,/ F,F, D,B,, z2 | %42
 z B,/A,/ G,/A,/B,/G,/ CC/B,/ A,/B,/C/A,/ | B,G, z2 z A,/G,/ F,/E,/D,/E,/ | %44
 ^C,/A,,/=B,,/C,/ D,/E,/F,/G,/ A,/D/^C/D/ G,/D/C/D/ | %45
 F,/D/^C/D/ E,/D/C/D/ D,/A,/G,/A,/ C,/A,/G,/A,/ | B,,2 z B, ^C,A,,D,G, | A,G,A,A,, D,2 z D | %48
 B,/D/C/D/ G,/D/C/D/ E,2 z C | A,/C/=B,/C/ F,/A,/G,/A,/ B,,2 z D, | E,2 z2 z A,/A,/ A,A, | %51
 ^G,C/C/ CC D,2 z D | ^G,A,E,E,, A,,2 z A,/=G,/ | ^F,D,E,=F, G,2 z G,/F,/ | E,C,D,E, F,F,, z F, | %55
 G,G,, z G, A,A,, z A, | B,B,, z G, C2 z2 | z D/D/ DD G,2 z2 | z A,/B,/ C/A,/B,/C/ F,2 z2 | %59
 z B,/C/ D/C/B,/A,/ G,/A,/B,/A,/ G,/F,/E,/D,/ | C,/F,/E,/D,/ C,/B,,/A,,/G,,/ F,,F,/F,/ F,F, | %61
 E,C,C,A, G,C, z/ C/B,/C/ | C,/B,/A,/B,/ C,/A,/G,/A,/ B,,B,A,F, | DD,C,C B,G,CB, | %64
 A,F,B,A, G,E,A,F, | D,B,, z A, CA,DB, | CB,CC, F,2 z F, | B,,C,D,B,, C,A,,D,B,, | %68
 C,C,C,C,, F,,2 z2 |][M:3/4] D,2 F,2 E,2 | D,2 C,2 B,,2 | A,,2 G,,2 F,,2 | G,,2 A,,2 A,,2 | %73
 D,2 F,2 E,2 | D,2 C,2 B,,2 | A,,2 G,,2 F,,2 | G,,2 A,,2 A,,2 | D,2 F,2 E,2 | D,2 C,2 B,,2 | %79
 F,2 A,2 G,2 | F,2 E,2 D,2 | C,2 B,,2 A,,2 | B,,2 C,2 C,2 | F,,2 A,2 G,2 | F,2 E,2 D,2 | %85
 C,2 C2 =B,2 | A,2 A,2 G,2 | F,2 E,2 D,2 | ^C,2 =B,,2 A,,2 | D,2 =B,2 C2 | F,2 E,2 D,2 | %91
 E,2 E,2 D,2 | C,2 C2 =B,2 | A,2 A,,2 G,,2 | F,,2 F,2 D,2 | ^G,2 E,2 A,2 | D,2 E,2 E,2 | %97
 A,,2 F,2 E,2 | D,2 C,2 B,,2 | A,2 G,2 F,2 | G,2 A,2 A,,2 | D,2 C,2 B,,2 | A,,2 ^F,2 D,2 | %103
 G,2 E,2 D,2 | ^C,4 ^C2 | D2 A,2 B,2 | G,2 A,2 A,,2 | z2 B,2 G,2 | ^C,4 C,2 | D,2 D2 C2 | %110
 B,2 B,,4 | A,,6 |][M:4/4] F,2 | E,2 F,2 C,2 D,2 | B,,2 B,2 A,2 B,2 | E,2 F,2 B,,2 C,2 | F,,6 C,2 | %117
 F,2 E,2 D,2 G,2 | E,2 C2 =B,2 G,2 | C2 E,2 G,2 G,,2 | C,2 C=B, C2 :: C,2 | C2 G,2 C2 B,2 | %123
 A,2 F,G, A,2 B,2 | A,2 D,2 G,2 A,2 | D,6 A,2 | D,2 ^F,2 G,2 G,,2 | C,2 E,2 F,2 A,,2 | %128
 B,,2 G,,2 C,2 B,,2 | A,,2 F,2 E,2 C,2 | F,2 A,2 C2 C,2 | D,2 F,2 E,2 G,2 | F,2 A,2 C2 B,2 | %133
 A,2 F,2 E,2 C,2 | F,2 A,,2 C,2 C,,2 | F,,6 :| z/4 |[M:3/4] F,2 A,2 F,2 | C2 E,2 C,2 | %139
 F,2 E,2 C,2 | F,2 E,2 D,2 | C,2 A,,2 F,,2 | C,2 D,2 E,2 | F,2 G,2 G,,2 | C,2 CB,A,G, :: %145
 F,2 A,2 F,2 | B,6 | G,2 B,2 G,2 | z6 | A,2 ^C2 A,2 | D2 A,2 B,2 | G,2 A,2 A,,2 | D,2 F,2 D,2 | %153
 A,4 F,2 | ^F,4 D,2 | A,2 ^F,2 D,2 | G,4 A,2 | B,6 | A,2 A,,2 B,,2 | C,2 B,,2 C,2 | F,,6 :| %161
V:6
 x8 | x8 | x8 | x8 | x8 | x8 | x8 | x8 | x8 | x8 | x8 | x8 | x8 | x8 | x8 | x8 |][M:4/4] x8 | x8 | %18
 x8 | x8 | x8 | x8 | x8 | x8 | x8 | x8 | x8 | x8 | x8 | x8 | x8 | x8 | x8 | x8 | x8 | x8 | x8 | %37
 x8 | x8 | x8 | x8 | x8 | x8 | x8 | x8 | x8 | x8 | x8 | x8 | x8 | x8 | x8 | x8 | x8 | x8 | x8 | %56
 x8 | x8 | x8 | x8 | x8 | x8 | x8 | x8 | x8 | x8 | x8 | x8 | x8 |][M:3/4] x6 | x6 | x6 | x6 | x6 | %74
 x6 | x6 | x6 | x6 | x6 | x6 | x6 | x6 | x6 | x6 | x6 | x6 | x6 | x6 | x6 | x6 | x6 | x6 | x6 | %93
 x6 | x6 | x6 | x6 | x6 | x6 | x6 | x6 | x6 | x6 | x6 | x6 | x6 | x6 | x6 | x6 | x6 | x6 | x6 |] %112
[M:4/4] x2 | x8 | x8 | x8 | x8 | x8 | x8 | x8 | x6 :: x2 | x8 | x8 | x8 | x8 | x8 | x8 | x8 | x8 | %130
 x8 | x8 | x8 | x8 | x8 | x6 :| x/4 |[M:3/4] x6 | x6 | x6 | x6 | x6 | x6 | D6 | x6 :: x6 | x6 | %147
 x6 | x6 | x6 | x6 | E6 | x6 | x6 | x6 | x6 | x6 | x6 | x6 | x6 | x6 :| %161

